src/frontend_kids/assets/images/callout-top-right.svg

<svg width="235" height="241" viewBox="0 0 235 241" fill="none" xmlns="http://www.w3.org/2000/svg">
<g filter="url(#filter0_d_409_1069)">
<path d="M212.915 5L181.297 50.1073C203.189 50.1073 221 67.5749 221 89.0448L221 187.063C221 208.532 203.189 226 181.297 226L46.126 226C24.233 226 6.42299 208.532 6.42299 187.063L6.42299 89.0448C6.42299 67.5749 24.234 50.1073 46.126 50.1073L133.868 50.1073L212.915 5ZM181.297 218.07C198.731 218.07 212.915 204.159 212.915 187.062L212.915 89.0438C212.915 71.946 198.731 58.0355 181.297 58.0355H163.723L181.297 32.3L138.411 58.0355L46.126 58.0355C28.692 58.0355 14.5079 71.946 14.5079 89.0438L14.5079 187.062C14.5079 204.159 28.692 218.07 46.126 218.07L181.297 218.07Z" fill="#00A4D7"/>
</g>
<rect x="15" y="57" width="198" height="162.933" rx="36" fill="white"/>
<path d="M187.5 28.833L166.5 57.433H138.5L187.5 28.833Z" fill="white"/>
<defs>
<filter id="filter0_d_409_1069" x="0.422852" y="0" width="234.577" height="241" filterUnits="userSpaceOnUse" color-interpolation-filters="sRGB">
<feFlood flood-opacity="0" result="BackgroundImageFix"/>
<feColorMatrix in="SourceAlpha" type="matrix" values="0 0 0 0 0 0 0 0 0 0 0 0 0 0 0 0 0 0 127 0" result="hardAlpha"/>
<feOffset dx="4" dy="5"/>
<feGaussianBlur stdDeviation="5"/>
<feComposite in2="hardAlpha" operator="out"/>
<feColorMatrix type="matrix" values="0 0 0 0 0 0 0 0 0 0 0 0 0 0 0 0 0 0 0.26 0"/>
<feBlend mode="normal" in2="BackgroundImageFix" result="effect1_dropShadow_409_1069"/>
<feBlend mode="normal" in="SourceGraphic" in2="effect1_dropShadow_409_1069" result="shape"/>
</filter>
</defs>
</svg>

<svg width="235" height="241" fill="none" xmlns="http://www.w3.org/2000/svg"><g filter="url(#a)"><path d="m212.915 5-31.618 45.107c21.892 0 39.703 17.468 39.703 38.938v98.018C221 208.532 203.189 226 181.297 226H46.126c-21.893 0-39.703-17.468-39.703-38.937V89.045c0-21.47 17.811-38.938 39.703-38.938h87.742L212.915 5zm-31.618 213.07c17.434 0 31.618-13.911 31.618-31.008V89.044c0-17.098-14.184-31.008-31.618-31.008h-17.574L181.297 32.3l-42.886 25.736H46.126c-17.434 0-31.618 13.91-31.618 31.008v98.018c0 17.097 14.184 31.008 31.618 31.008h135.171z" fill="#00A4D7"/></g><rect x="15" y="57" width="198" height="162.933" rx="36" fill="#fff"/><path d="m187.5 28.833-21 28.6h-28l49-28.6z" fill="#fff"/><defs><filter id="a" x=".423" y="0" width="234.577" height="241" filterUnits="userSpaceOnUse" color-interpolation-filters="sRGB"><feFlood flood-opacity="0" result="BackgroundImageFix"/><feColorMatrix in="SourceAlpha" values="0 0 0 0 0 0 0 0 0 0 0 0 0 0 0 0 0 0 127 0" result="hardAlpha"/><feOffset dx="4" dy="5"/><feGaussianBlur stdDeviation="5"/><feComposite in2="hardAlpha" operator="out"/><feColorMatrix values="0 0 0 0 0 0 0 0 0 0 0 0 0 0 0 0 0 0 0.26 0"/><feBlend in2="BackgroundImageFix" result="effect1_dropShadow_409_1069"/><feBlend in="SourceGraphic" in2="effect1_dropShadow_409_1069" result="shape"/></filter></defs></svg>
